src/icons/svg/scan.svg

<?xml version="1.0" encoding="UTF-8"?>
<svg width="184px" height="184px" viewBox="0 0 184 184" version="1.1" xmlns="http://www.w3.org/2000/svg"
>
    <path d="M91.6666666,183.341458 C41.0405646,183.341458 -6.9388939e-15,142.300894 -6.9388939e-15,91.6747917 C0.0535397665,70.505775 7.41237071,50.0040719 20.8333332,33.6331251 C23.6218122,30.2086156 27.7168568,28.1082053 32.125,27.8414583 C36.6727552,27.6410729 41.0978101,29.347664 44.3333332,32.5497917 L97.5416666,85.7997917 C100.373139,89.1061274 100.182768,94.0347428 97.1046929,97.112818 C94.0266177,100.190893 89.0980023,100.381265 85.7916666,97.5497917 L33.0833332,44.8831251 C22.4640203,58.1678232 16.6752268,74.6673541 16.6666666,91.6747917 C16.634797,112.309451 25.1059247,132.045685 40.0857285,146.237078 C55.0655324,160.428471 75.2305194,167.821188 95.8333332,166.674792 C133.947312,164.34614 164.338015,133.955437 166.666667,95.8414583 C167.813062,75.2386445 160.420346,55.0736575 146.228953,40.0938537 C132.03756,25.1140498 112.301325,16.6429221 91.6666666,16.6747917 C85.0987008,16.6886637 78.5594988,17.5428207 72.2083332,19.2164583 C67.9277344,19.9697568 63.787032,17.3066153 62.6970126,13.0991407 C61.6069933,8.89166618 63.9337598,4.55301463 68.0416666,3.13312512 C96.4092432,-4.47902134 126.706595,1.9631523 149.522872,20.4586022 C172.33915,38.9540521 184.910974,67.2627144 183.333333,96.5914583 C180.529036,143.291305 143.283179,180.537161 96.5833332,183.341458 L91.6666666,183.341458 Z"
          id="路径"></path>
</svg>

<svg width="184" height="184" xmlns="http://www.w3.org/2000/svg"><path d="M91.667 183.341C41.04 183.341 0 142.301 0 91.675a91.917 91.917 0 0 1 20.833-58.042 15.792 15.792 0 0 1 11.292-5.792 16.333 16.333 0 0 1 12.208 4.709L97.542 85.8a8.333 8.333 0 0 1-11.75 11.75L33.083 44.883a75 75 0 0 0-16.416 46.792 75 75 0 0 0 79.166 75c38.114-2.329 68.505-32.72 70.834-70.834a75 75 0 0 0-75-79.166 77 77 0 0 0-19.459 2.541 8.333 8.333 0 0 1-4.166-16.083 91.667 91.667 0 0 1 115.291 93.458c-2.804 46.7-40.05 83.946-86.75 86.75h-4.916z"/></svg>
